public/svgs/twin/youtube.svg

<svg width="100%" height="100%" viewBox="0 0 20 20" fill="none" xmlns="http://www.w3.org/2000/svg">
<g id="Youtube-fill 1">
<path id="Vector" d="M19.5826 5.18094C19.3527 4.31934 18.6741 3.64076 17.8147 3.41085C16.2545 2.99121 10 2.99121 10 2.99121C10 2.99121 3.74554 2.99121 2.18527 3.40862C1.32366 3.63853 0.647321 4.3171 0.417411 5.17871C-8.51495e-08 6.74121 0 10.0001 0 10.0001C0 10.0001 -8.51495e-08 13.2591 0.417411 14.8193C0.647321 15.6809 1.32589 16.3595 2.18527 16.5894C3.74554 17.0091 10 17.0091 10 17.0091C10 17.0091 16.2545 17.0091 17.8147 16.5894C18.6763 16.3595 19.3527 15.6809 19.5826 14.8193C20 13.2591 20 10.0001 20 10.0001C20 10.0001 20 6.74121 19.5826 5.18094ZM8.01339 12.9912V7.00907L13.192 9.97782L8.01339 12.9912Z" fill="current"/>
</g>
</svg>

<svg xmlns="http://www.w3.org/2000/svg" fill="none" viewBox="0 0 20 20"><path fill="current" d="M19.583 5.18a2.51 2.51 0 0 0-1.768-1.77C16.255 2.992 10 2.992 10 2.992s-6.254 0-7.815.418a2.5 2.5 0 0 0-1.768 1.77C0 6.74 0 10 0 10s0 3.26.417 4.82c.23.86.909 1.54 1.768 1.77 1.56.42 7.815.42 7.815.42s6.255 0 7.815-.42a2.5 2.5 0 0 0 1.768-1.77C20 13.26 20 10 20 10s0-3.259-.417-4.82m-11.57 7.811V7.01l5.179 2.969z"/></svg>
